apps/symbolic/deja-dup-symbolic.svg

<svg height="24" viewBox="0 0 24 24" width="24" xmlns="http://www.w3.org/2000/svg"><path d="m11.1 7.95v4.599l4.239 2.511.711-1.152-3.6-2.133v-3.825m0-4.5c-3.177 0-5.931 1.728-7.407 4.293l-2.043-2.043v5.85h5.85l-2.475-2.475c1.089-2.268 3.375-3.825 6.075-3.825a6.75 6.75 0 0 1 6.75 6.75 6.75 6.75 0 0 1 -6.75 6.75c-2.943 0-5.427-1.881-6.354-4.5h-1.89c.99 3.627 4.293 6.3 8.244 6.3 4.716 0 8.55-3.825 8.55-8.55a8.55 8.55 0 0 0 -8.55-8.55z" fill="#bebebe" stroke-width=".9"/></svg>

<?xml version="1.0" encoding="UTF-8" standalone="no"?>
<svg
   xmlns:dc="http://purl.org/dc/elements/1.1/"
   xmlns:cc="http://creativecommons.org/ns#"
   xmlns:rdf="http://www.w3.org/1999/02/22-rdf-syntax-ns#"
   xmlns:svg="http://www.w3.org/2000/svg"
   xmlns="http://www.w3.org/2000/svg"
   xmlns:sodipodi="http://sodipodi.sourceforge.net/DTD/sodipodi-0.dtd"
   xmlns:inkscape="http://www.inkscape.org/namespaces/inkscape"
   version="1.1"
   width="24"
   height="24"
   viewBox="0 0 24 24"
   id="svg2"
   inkscape:version="0.92.1 r15371"
   sodipodi:docname="deja-dup-symbolic.svg">
  <metadata
     id="metadata10">
    <rdf:RDF>
      <cc:Work
         rdf:about="">
        <dc:format>image/svg+xml</dc:format>
        <dc:type
           rdf:resource="http://purl.org/dc/dcmitype/StillImage" />
      </cc:Work>
    </rdf:RDF>
  </metadata>
  <defs
     id="defs8" />
  <sodipodi:namedview
     pagecolor="#ffffff"
     bordercolor="#666666"
     borderopacity="1"
     objecttolerance="10"
     gridtolerance="10"
     guidetolerance="10"
     inkscape:pageopacity="0"
     inkscape:pageshadow="2"
     inkscape:window-width="640"
     inkscape:window-height="480"
     id="namedview6"
     showgrid="false"
     inkscape:zoom="25.291667"
     inkscape:cx="5.0411862"
     inkscape:cy="12"
     inkscape:current-layer="svg2" />
  <path
     d="m 11.1,7.95 v 4.599 l 4.239,2.511 0.711,-1.152 -3.6,-2.133 V 7.95 m 0,-4.5 C 9.273,3.45 6.519,5.178 5.043,7.743 L 3,5.7 v 5.85 H 8.85 L 6.375,9.075 C 7.464,6.807 9.75,5.25 12.45,5.25 A 6.75,6.75 0 0 1 19.2,12 6.75,6.75 0 0 1 12.45,18.75 c -2.943,0 -5.427,-1.881 -6.354,-4.5 h -1.89 c 0.99,3.627 4.293,6.3 8.244,6.3 C 17.166,20.55 21,16.725 21,12 A 8.55,8.55 0 0 0 12.45,3.45 Z"
     id="path4"
     style="fill:#bebebe;fill-opacity:1;stroke-width:0.89999998"
     inkscape:connector-curvature="0" />
</svg>
